public/img/icon-facebook.svg

<svg width="32" height="32" viewBox="0 0 32 32" fill="none" xmlns="http://www.w3.org/2000/svg">
<path d="M25.5524 3H6.04762C4.36533 3 3 4.36533 3 6.04762V25.5524C3 27.2347 4.36533 28.6 6.04762 28.6H25.5524C27.2347 28.6 28.6 27.2347 28.6 25.5524V6.04762C28.6 4.36533 27.2347 3 25.5524 3ZM23.1143 12.1429H21.8952C20.5909 12.1429 20.0667 12.4476 20.0667 13.3619V15.1905H23.1143L22.5048 18.2381H20.0667V27.381H17.019V18.2381H14.581V15.1905H17.019V13.3619C17.019 10.9238 18.2381 9.09524 20.6762 9.09524C22.4438 9.09524 23.1143 9.70476 23.1143 9.70476V12.1429Z" fill="#fff"/>
</svg>

<?xml version="1.0" encoding="UTF-8"?>
<svg id="Layer_1" xmlns="http://www.w3.org/2000/svg" version="1.1" viewBox="0 0 32 32">
  <!-- Generator: Adobe Illustrator 29.3.1, SVG Export Plug-In . SVG Version: 2.1.0 Build 151)  -->
  <defs>
    <style>
      .st0 {
        fill: #292929;
      }
    </style>
  </defs>
  <path class="st0" d="M25.6,3H6c-1.7,0-3,1.4-3,3v19.5c0,1.7,1.4,3,3,3h19.5c1.7,0,3-1.4,3-3V6c0-1.7-1.4-3-3-3ZM23.1,12.1h-1.2c-1.3,0-1.8.3-1.8,1.2v1.8h3l-.6,3h-2.4v9.1h-3v-9.1h-2.4v-3h2.4v-1.8c0-2.4,1.2-4.3,3.7-4.3s2.4.6,2.4.6v2.4Z"/>
</svg>
